X:1
T:He Purged My Soul
T:He Purged My Soul
T:H. A. R. Horton
T:C. H. Montgomery, 1911
T:Public Domain Courtesy of the Cyber Hymnal™
T:Public Domain Courtesy of the Cyber Hymnal™
C:H. A. R. Horton
Z:Public Domain
Z:Courtesy of the Cyber Hymnal™
%%score ( 1 2 ) ( 3 4 )
L:1/8
Q:1/4=97
M:6/8
K:D
V:1 treble 
V:2 treble 
V:3 bass 
V:4 bass 
V:1
 [A,D] | [DF]2 [DF] [DF]2 [DF] | [CG]2 [CG] [CG]2 [DF] | [CE]2 [CE] [CE]2 [CA] | %4
w: 1.~En-|slaved by sin and|Sa- tan’s power, My|heart was filled with|
w: 2.~While|liv- ing thus I|felt sin’s weight, But|God’s dear Son did|
w: 3.~That|light so sweet, to|me ’twas dear, When|once I knew His|
 (AC)[CG] !fermata![DF]2 [FA] | [Fd]2 [Fd] ([Bd][Ac])[AB] | [^Ge]2 [Gd] !fermata![Ac]2 (B/A/) | %7
w: gloom * of night; But|Je- sus came * in|that sad hour, And *|
w: set * me free, And|I can ne’er * for-|get the date, When *|
w: love * so deep, And|now I live * with-|out a fear, For *|
 [Fd]2 [Fd] [Dd]2 [GB] | (Ad)[Gc] !fermata![Fd]2 ||"^Refrain" A | (z2 [FA]2) [Dd] x | %11
w: purged my soul and|made * it white.|||
w: He did say, “Thy|light * I’ll be.”|Re-|* joice,|
w: God my soul in|Christ * doth keep.|||
 [Ec-]3 [Gc]2 A | (z2 [GA]2) [Ge] x | [Fd]3- [Fd]2 d | d2 B A2 [GB] | %15
w: ||||
w: |* re-|* * joice,|I am * so|
w: ||||
 [FA]2 [EA] !fermata![DF]2 [FA] | [Gc]2 [GA] [Gc]2 [EA] | [Dd]2 [GA] [Fd]2 [FA] | %18
w: |||
w: free; I am so|free, I am so|free, And I will|
w: |||
 [Fd]2 [Fd] ([Bd][Ac])[AB] | [^Ge]2 [Gd] !fermata![Ac]2 (B/A/) | [Fd]2 [Fd] [Dd]2 [GB] | %21
w: |||
w: work for His * de-|light, For Christ is *|ev- ery- thing to|
w: |||
 (Ad)[Gc] !fermata![Fd]2 |] %22
w: |
w: me, * He purged|
w: |
V:2
 x | x6 | x6 | x6 | C2 x4 | x6 | x5 =G | x6 | F2 x3 || x | A3- F x2 | x6 | A3- G x2 | x5 d | %14
 d2 B A2 x | x6 | x6 | x6 | x6 | x5 =G | x6 | F2 x3 |] %22
V:3
 [D,F,] | [D,A,]2 [D,A,] [D,A,]2 [D,A,] | [E,A,]2 [E,A,] [E,A,]2 [D,A,] | %3
w: |||
 [A,,A,]2 [A,,A,] [A,,A,]2 [A,,A,] | [A,,A,]2 [A,,A,] !fermata![D,A,]2 [D,A,] | %5
w: ||
 [D,A,]2 [D,D] [G,D]2 [F,^D] | [E,E]2 [E,E] [A,E]2 A, | [D,A,]2 [D,A,] [F,A,]2 [G,D] | %8
w: |* * * Re-||
 [A,D]2 [A,,A,] !fermata![D,A,]2 || z | z2 [D,A,] [D,A,]2 [F,A,] | A,3- A,2 z | %12
w: ||joice, I *|am *|
 z2 [A,,C] [A,,C]2 [A,,A,] | [D,A,]3- [D,A,]2 D | D2 B, A,2 [G,D] | %15
w: |||
 [F,D]2 [E,A,] !fermata![D,A,]2 [D,A,] | [E,A,]2 [E,A,] [A,,A,]2 [G,A,] | %17
w: ||
 [F,A,]2 [E,A,] [D,A,]2 [D,A,] | [D,A,]2 [D,D] [G,D]2 [F,^D] | [E,E]2 [E,E] !fermata![A,E]2 A, | %20
w: |||
 [D,A,]2 [D,A,] [F,A,]2 [G,D] | [A,D]2 [A,,A,] !fermata![D,A,]2 |] %22
w: ||
V:4
 x | x6 | x6 | x6 | x6 | x6 | x5 A, | x6 | x5 || x | x6 | A,3- A,2 x | x6 | x5 D | D2 B, A,2 x | %15
 x6 | x6 | x6 | x6 | x5 A, | x6 | x5 |] %22

